;FLAVOR:UltiGCode
;TIME:43745
;MATERIAL:34262
;MATERIAL2:0
;NOZZLE_DIAMETER:0.400000
;NOZZLE_DIAMETER2:0.400000
;MTYPE:ABS

;Layer count: 307
;LAYER:0
M107
G0 F7200 X74.325 Y142.668 Z0.260
;TYPE:SKIRT
G1 F1200 X74.325 Y156.982 E1.30257
G1 X78.505 Y156.981 E1.68295
G1 X84.855 Y156.981 E2.26080
G1 X84.855 Y150.858 E2.81800
G1 X74.325 Y142.668 E4.03194
G0 F7200 X73.975 Y141.952
G1 F1200 X73.975 Y157.332 E5.43152
G1 X85.205 Y157.330 E6.45345
G1 X85.205 Y150.687 E7.05796
G1 X73.975 Y141.952 E8.35264
G0 F7200 X73.625 Y141.236
G1 F1200 X73.625 Y157.682 E9.84923
G1 X85.555 Y157.680 E10.93486
G1 X85.555 Y150.516 E11.58678
G1 X73.625 Y141.236 E12.96218
G0 F7200 X73.275 Y140.520
G1 F1200 X73.275 Y158.032 E14.55578
G1 X85.905 Y158.030 E15.70511
G1 X85.905 Y150.344 E16.40453
G1 X73.275 Y140.520 E17.86061
G0 F7200 X72.925 Y139.805
G1 F1200 X72.925 Y158.382 E19.55112
G1 X85.925 Y158.380 E20.73412
G1 X85.925 Y184.232 E23.08665
G1 X70.925 Y184.232 E24.45165
G1 X70.925 Y184.846 E24.50753
G1 X51.374 Y184.846 E26.28667
G1 X51.374 Y159.446 E28.59807
G1 X38.574 Y159.446 E29.76287
G1 X38.574 Y132.396 E32.22442
G1 X57.924 Y132.396 E33.98527
G1 X57.924 Y132.882 E34.02949
G1 X63.653 Y132.881 E34.55083
G1 X63.653 Y26.596 E44.22277
G1 X170.102 Y26.596 E53.90963
G1 X170.102 Y133.793 E63.66455
G1 X165.189 Y136.196 E64.16225
G1 X167.599 Y136.196 E64.38156
G1 X169.549 Y136.849 E64.56869
G1 X169.947 Y137.048 E64.60919
G1 X170.548 Y137.247 E64.66680
G1 X170.948 Y137.448 E64.70753
G1 X171.546 Y137.645 E64.76483
G1 X171.950 Y137.848 E64.80597
G1 X172.543 Y138.044 E64.86281
G1 X172.957 Y138.251 E64.90493
G1 X174.145 Y138.647 E65.01888
G1 X174.548 Y138.848 E65.05987
G1 X175.148 Y139.047 E65.11739
G1 X175.548 Y139.248 E65.15813
G1 X176.146 Y139.445 E65.21542
G1 X176.550 Y139.648 E65.25657
G1 X177.143 Y139.844 E65.31340
G1 X177.550 Y140.048 E65.35483
G1 X178.156 Y140.249 E65.41293
G1 X182.324 Y142.348 E65.83760
G1 X182.324 Y144.180 E66.00431
G1 X182.724 Y144.225 E66.04094
G1 X182.724 Y156.646 E67.17125
G1 X179.336 Y156.646 E67.47956
G1 X179.324 Y156.658 E67.48110
G1 X179.324 Y157.058 E67.51750
G1 X179.124 Y157.258 E67.54324
G1 X179.124 Y157.458 E67.56144
G1 X178.924 Y157.658 E67.58718
G1 X178.924 Y158.058 E67.62358
G1 X178.724 Y158.258 E67.64932
G1 X178.724 Y158.658 E67.68572
G1 X178.524 Y158.858 E67.71146
G1 X178.524 Y159.058 E67.72966
G1 X178.324 Y159.258 E67.75540
G1 X178.324 Y159.658 E67.79180
G1 X178.124 Y159.858 E67.81754
G1 X178.124 Y160.058 E67.83574
G1 X177.924 Y160.258 E67.86147
G1 X177.924 Y160.658 E67.89787
G1 X177.724 Y160.858 E67.92361
G1 X177.724 Y161.058 E67.94181
G1 X177.524 Y161.258 E67.96755
G1 X177.524 Y161.505 E67.99003
G1 X180.924 Y162.633 E68.31601
G1 X180.924 Y163.731 E68.41593
G1 X185.094 Y165.370 E68.82366
G1 X183.539 Y169.349 E69.21242
G1 X184.618 Y171.972 E69.47052
G1 X183.324 Y173.262 E69.63679
G1 X183.324 Y176.516 E69.93290
G1 X181.886 Y176.696 E70.06478
G1 X179.847 Y178.735 E70.32719
G1 X177.804 Y183.829 E70.82663
G1 X172.306 Y181.669 E71.36418
G1 X171.233 Y181.246 E71.46913
G1 X169.736 Y181.246 E71.60536
G1 X169.724 Y181.258 E71.60691
G1 X169.724 Y181.458 E71.62511
G1 X169.524 Y181.658 E71.65084
G1 X169.524 Y182.058 E71.68724
G1 X169.324 Y182.258 E71.71298
G1 X169.324 Y182.658 E71.74938
G1 X169.124 Y182.858 E71.77512
G1 X169.124 Y183.058 E71.79332
G1 X168.924 Y183.258 E71.81906
G1 X168.924 Y183.658 E71.85546
G1 X168.724 Y183.858 E71.88120
G1 X168.724 Y184.058 E71.89940
G1 X168.524 Y184.258 E71.92514
G1 X168.524 Y184.658 E71.96154
G1 X168.324 Y184.858 E71.98728
G1 X168.324 Y185.058 E72.00548
G1 X168.124 Y185.258 E72.03121
G1 X168.124 Y185.658 E72.06761
G1 X167.924 Y185.858 E72.09335
G1 X167.924 Y186.258 E72.12975
G1 X167.724 Y186.458 E72.15549
G1 X167.724 Y186.658 E72.17369
G1 X167.524 Y186.858 E72.19943
G1 X167.524 Y187.258 E72.23583
G1 X167.324 Y187.458 E72.26157
G1 X167.324 Y187.658 E72.27977
G1 X167.124 Y187.858 E72.30551
G1 X167.124 Y188.258 E72.34191
G1 X166.924 Y188.458 E72.36765
G1 X166.924 Y188.658 E72.38585
G1 X166.724 Y188.858 E72.41159
G1 X166.724 Y191.458 E72.64819
G1 X166.524 Y191.658 E72.67392
G1 X166.524 Y199.509 E73.38837
G1 X161.301 Y196.881 E73.92043
G1 X160.054 Y198.129 E74.08098
G1 X156.163 Y196.199 E74.47622
G1 X155.553 Y195.997 E74.53470
G1 X155.141 Y195.791 E74.57661
G1 X153.953 Y195.395 E74.69057
G1 X153.550 Y195.194 E74.73155
G1 X152.952 Y194.996 E74.78888
G1 X152.543 Y194.791 E74.83051
G1 X151.353 Y194.395 E74.94464
G1 X150.950 Y194.194 E74.98562
G1 X150.352 Y193.996 E75.04294
G1 X149.943 Y193.791 E75.08457
G1 X148.753 Y193.395 E75.19870
G1 X148.350 Y193.194 E75.23968
G1 X147.752 Y192.996 E75.29701
G1 X147.347 Y192.793 E75.33823
G1 X146.750 Y192.595 E75.39547
G1 X138.219 Y188.333 E76.26328
G1 X139.107 Y187.446 E76.37750
G1 X86.255 Y187.446 E81.18703
G1 X86.255 Y150.173 E84.57887
G1 X72.925 Y139.805 E86.11562
G0 F7200 X72.575 Y139.090
G1 F1200 X72.575 Y158.381 E87.87110
G1 X70.575 Y158.381 E88.05310
G1 X70.575 Y158.732 E88.08505
G1 X85.575 Y158.730 E89.45005
G1 X85.575 Y183.882 E91.73888
G1 X70.575 Y183.882 E93.10388
G1 X70.575 Y184.496 E93.15975
G1 X51.724 Y184.496 E94.87519
G1 X51.724 Y159.096 E97.18659
G1 X38.924 Y159.096 E98.35139
G1 X38.924 Y132.746 E100.74924
G1 X57.574 Y132.746 E102.44639
G1 X57.574 Y133.232 E102.49062
G1 X64.003 Y133.231 E103.07566
G1 X64.003 Y26.946 E112.74759
G1 X169.752 Y26.946 E122.37075
G1 X169.752 Y133.575 E132.07399
G1 X164.684 Y136.053 E132.58736
G1 X164.050 Y136.546 E132.66044
G1 X167.542 Y136.546 E132.97821
G1 X169.414 Y137.174 E133.15789
G1 X169.806 Y137.369 E133.19774
G1 X170.414 Y137.571 E133.25604
G1 X170.821 Y137.775 E133.29747
G1 X171.412 Y137.970 E133.35410
G1 X171.821 Y138.175 E133.39573
G1 X172.409 Y138.369 E133.45208
G1 X172.818 Y138.574 E133.49371
G1 X174.011 Y138.971 E133.60813
G1 X174.411 Y139.171 E133.64882
G1 X175.014 Y139.371 E133.70663
G1 X175.421 Y139.575 E133.74806
G1 X176.012 Y139.770 E133.80470
G1 X176.420 Y139.975 E133.84625
G1 X177.010 Y140.169 E133.90277
G1 X177.413 Y140.371 E133.94379
G1 X178.022 Y140.573 E134.00218
G1 X181.974 Y142.564 E134.40487
G1 X181.974 Y144.492 E134.58032
G1 X182.374 Y144.537 E134.61695
G1 X182.374 Y156.296 E135.68702
G1 X179.174 Y156.296 E135.97822
G1 X179.174 Y156.313 E135.97976
G1 X178.974 Y156.513 E136.00550
G1 X178.974 Y156.913 E136.04190
G1 X178.774 Y157.113 E136.06764
G1 X178.774 Y157.313 E136.08584
G1 X178.574 Y157.513 E136.11158
G1 X178.574 Y157.913 E136.14798
G1 X178.374 Y158.113 E136.17372
G1 X178.374 Y158.513 E136.21012
G1 X178.174 Y158.713 E136.23586
G1 X178.174 Y158.913 E136.25406
G1 X177.974 Y159.113 E136.27979
G1 X177.974 Y159.513 E136.31619
G1 X177.774 Y159.713 E136.34193
G1 X177.774 Y159.913 E136.36013
G1 X177.574 Y160.113 E136.38587
G1 X177.574 Y160.513 E136.42227
G1 X177.374 Y160.713 E136.44801
G1 X177.374 Y160.913 E136.46621
G1 X177.174 Y161.113 E136.49195
G1 X177.174 Y161.513 E136.52835
G1 X176.990 Y161.697 E136.55203
G1 X180.574 Y162.886 E136.89565
G1 X180.574 Y163.969 E136.99421
G1 X184.641 Y165.568 E137.39188
G1 X183.162 Y169.353 E137.76168
G1 X184.205 Y171.889 E138.01121
G1 X182.974 Y173.116 E138.16937
G1 X182.974 Y176.207 E138.45065
G1 X181.724 Y176.363 E138.56529
G1 X179.549 Y178.538 E138.84519
G1 X177.609 Y183.377 E139.31961
G1 X172.434 Y181.343 E139.82561
G1 X171.300 Y180.896 E139.93653
G1 X169.731 Y180.896 E140.07931
G1 X169.574 Y180.817 E140.09530
G1 X169.574 Y180.913 E140.10404
G1 X169.374 Y181.113 E140.12978
G1 X169.374 Y181.313 E140.14798
G1 X169.174 Y181.513 E140.17372
G1 X169.174 Y181.913 E140.21012
G1 X168.974 Y182.113 E140.23585
G1 X168.974 Y182.513 E140.27225
G1 X168.774 Y182.713 E140.29799
G1 X168.774 Y182.913 E140.31619
G1 X168.574 Y183.113 E140.34193
G1 X168.574 Y183.513 E140.37833
G1 X168.374 Y183.713 E140.40407
G1 X168.374 Y183.913 E140.42227
G1 X168.174 Y184.113 E140.44801
G1 X168.174 Y184.513 E140.48441
G1 X167.974 Y184.713 E140.51015
G1 X167.974 Y184.913 E140.52835
G1 X167.774 Y185.113 E140.55409
G1 X167.774 Y185.513 E140.59049
G1 X167.574 Y185.713 E140.61622
G1 X167.574 Y186.113 E140.65262
G1 X167.374 Y186.313 E140.67836
G1 X167.374 Y186.513 E140.69656
G1 X167.174 Y186.713 E140.72230
G1 X167.174 Y187.113 E140.75870
G1 X166.974 Y187.313 E140.78444
G1 X166.974 Y187.513 E140.80264
G1 X166.774 Y187.713 E140.82838
G1 X166.774 Y188.113 E140.86478
G1 X166.574 Y188.313 E140.89052
G1 X166.574 Y188.513 E140.90872
G1 X166.374 Y188.713 E140.93446
G1 X166.374 Y191.313 E141.17106
G1 X166.174 Y191.513 E141.19680
G1 X166.174 Y198.941 E141.87274
G1 X161.232 Y196.455 E142.37616
G1 X159.984 Y197.703 E142.53677
G1 X156.294 Y195.874 E142.91155
G1 X155.687 Y195.673 E142.96973
G1 X155.277 Y195.467 E143.01149
G1 X154.087 Y195.071 E143.12561
G1 X153.687 Y194.871 E143.16631
G1 X153.086 Y194.672 E143.22392
G1 X152.678 Y194.468 E143.26543
G1 X151.487 Y194.071 E143.37968
G1 X151.087 Y193.871 E143.42037
G1 X150.486 Y193.672 E143.47798
G1 X150.078 Y193.468 E143.51949
G1 X148.887 Y193.071 E143.63374
G1 X148.487 Y192.871 E143.67443
G1 X147.886 Y192.672 E143.73205
G1 X147.482 Y192.470 E143.77315
G1 X146.884 Y192.271 E143.83050
G1 X138.810 Y188.237 E144.65184
G1 X139.952 Y187.096 E144.79874
G1 X86.605 Y187.096 E149.65332
G1 X86.605 Y150.002 E153.02887
G1 X72.575 Y139.090 E154.64630
G0 F7200 X72.225 Y138.374
G1 F1200 X72.225 Y158.031 E156.43509
G1 X57.224 Y158.031 E157.80018
G1 X57.224 Y158.496 E157.84249
G1 X70.225 Y158.496 E159.02558
G1 X70.225 Y159.082 E159.07891
G1 X85.225 Y159.080 E160.44391
G1 X85.225 Y183.532 E162.66904
G1 X70.225 Y183.532 E164.03404
G1 X70.225 Y184.146 E164.08991
G1 X52.074 Y184.146 E165.74166
G1 X52.074 Y158.746 E168.05306
G1 X39.274 Y158.746 E169.21786
G1 X39.274 Y133.096 E171.55201
G1 X57.224 Y133.096 E173.18546
G1 X57.224 Y133.582 E173.22968
G1 X65.447 Y133.581 E173.97797
G1 X64.353 Y133.047 E174.08876
G1 X64.353 Y27.296 E183.71210
G1 X169.402 Y27.296 E193.27156
G1 X169.402 Y133.356 E202.92302
G1 X164.501 Y135.752 E203.41945
G1 X163.030 Y136.896 E203.58903
G1 X167.485 Y136.896 E203.99443
G1 X169.280 Y137.498 E204.16672
G1 X169.672 Y137.693 E204.20656
G1 X170.280 Y137.895 E204.26486
G1 X170.683 Y138.098 E204.30593
G1 X171.278 Y138.294 E204.36293
G1 X171.682 Y138.497 E204.40408
G1 X172.276 Y138.693 E204.46100
G1 X172.687 Y138.899 E204.50283
G1 X173.877 Y139.296 E204.61699
G1 X174.275 Y139.494 E204.65744
G1 X174.880 Y139.695 E204.71546
G1 X175.283 Y139.898 E204.75652
G1 X175.878 Y140.094 E204.81353
G1 X176.282 Y140.297 E204.85467
G1 X176.876 Y140.493 E204.91159
G1 X177.279 Y140.696 E204.95265
G1 X177.887 Y140.897 E205.01093
G1 X181.624 Y142.779 E205.39169
G1 X181.624 Y144.805 E205.57605
G1 X182.024 Y144.850 E205.61268
G1 X182.024 Y155.946 E206.62242
G1 X178.846 Y155.946 E206.91161
G1 X178.824 Y155.968 E206.91445
G1 X178.824 Y156.168 E206.93265
G1 X178.624 Y156.368 E206.95838
G1 X178.624 Y156.768 E206.99478
G1 X178.424 Y156.968 E207.02052
G1 X178.424 Y157.168 E207.03872
G1 X178.224 Y157.368 E207.06446
G1 X178.224 Y157.768 E207.10086
G1 X178.024 Y157.968 E207.12660
G1 X178.024 Y158.368 E207.16300
G1 X177.824 Y158.568 E207.18874
G1 X177.824 Y158.768 E207.20694
G1 X177.624 Y158.968 E207.23268
G1 X177.624 Y159.368 E207.26908
G1 X177.424 Y159.568 E207.29482
G1 X177.424 Y159.768 E207.31302
G1 X177.224 Y159.968 E207.33876
G1 X177.224 Y160.368 E207.37516
G1 X177.024 Y160.568 E207.40089
G1 X177.024 Y160.768 E207.41909
G1 X176.824 Y160.968 E207.44483
G1 X176.824 Y161.368 E207.48123
G1 X176.624 Y161.568 E207.50697
G1 X176.624 Y161.944 E207.54119
G1 X180.224 Y163.138 E207.88634
G1 X180.224 Y164.207 E207.98362
G1 X184.188 Y165.766 E208.37123
G1 X182.786 Y169.355 E208.72187
G1 X183.793 Y171.806 E208.96300
G1 X182.624 Y172.971 E209.11319
G1 X182.624 Y175.898 E209.37954
G1 X181.561 Y176.031 E209.47703
G1 X179.250 Y178.342 E209.77444
G1 X179.248 Y178.347 E209.77493
G1 X177.413 Y182.924 E210.22366
G1 X172.563 Y181.018 E210.69787
G1 X171.366 Y180.546 E210.81496
G1 X169.814 Y180.546 E210.95619
G1 X169.303 Y180.289 E211.00824
G1 X169.224 Y180.368 E211.01841
G1 X169.224 Y180.768 E211.05481
G1 X169.024 Y180.968 E211.08055
G1 X169.024 Y181.168 E211.09875
G1 X168.824 Y181.368 E211.12449
G1 X168.824 Y181.768 E211.16089
G1 X168.624 Y181.968 E211.18663
G1 X168.624 Y182.368 E211.22303
G1 X168.424 Y182.568 E211.24877
G1 X168.424 Y182.768 E211.26697
G1 X168.224 Y182.968 E211.29270
G1 X168.224 Y183.368 E211.32910
G1 X168.024 Y183.568 E211.35484
G1 X168.024 Y183.768 E211.37304
G1 X167.824 Y183.968 E211.39878
G1 X167.824 Y184.368 E211.43518
G1 X167.624 Y184.568 E211.46092
G1 X167.624 Y184.768 E211.47912
G1 X167.424 Y184.968 E211.50486
G1 X167.424 Y185.368 E211.54126
G1 X167.224 Y185.568 E211.56700
G1 X167.224 Y185.968 E211.60340
G1 X167.024 Y186.168 E211.62914
G1 X167.024 Y186.368 E211.64734
G1 X166.824 Y186.568 E211.67308
G1 X166.824 Y186.968 E211.70948
G1 X166.624 Y187.168 E211.73521
G1 X166.624 Y187.368 E211.75341
G1 X166.424 Y187.568 E211.77915
G1 X166.424 Y187.968 E211.81555
G1 X166.224 Y188.168 E211.84129
G1 X166.224 Y188.368 E211.85949
G1 X166.024 Y188.568 E211.88523
G1 X166.024 Y191.168 E212.12183
G1 X165.824 Y191.368 E212.14757
G1 X165.824 Y198.373 E212.78502
G1 X161.163 Y196.029 E213.25979
G1 X159.914 Y197.278 E213.42053
G1 X156.427 Y195.548 E213.77475
G1 X155.821 Y195.348 E213.83282
G1 X155.412 Y195.143 E213.87446
G1 X154.221 Y194.746 E213.98870
G1 X153.824 Y194.548 E214.02907
G1 X153.220 Y194.348 E214.08697
G1 X152.811 Y194.143 E214.12860
G1 X151.621 Y193.746 E214.24276
G1 X151.224 Y193.548 E214.28313
G1 X150.620 Y193.348 E214.34103
G1 X150.211 Y193.143 E214.38266
G1 X149.021 Y192.746 E214.49682
G1 X148.624 Y192.548 E214.53719
G1 X148.020 Y192.348 E214.59509
G1 X147.618 Y192.146 E214.63603
G1 X147.018 Y191.947 E214.69355
G1 X139.401 Y188.141 E215.46841
G1 X140.798 Y186.746 E215.64807
G1 X86.955 Y186.746 E220.54778
G1 X86.955 Y149.831 E223.90705
G1 X72.225 Y138.374 E225.60521
G0 F7200 X71.875 Y137.658
G1 F1200 X71.875 Y157.681 E227.42730
G1 X56.874 Y157.681 E228.79239
G1 X56.874 Y158.396 E228.85745
G1 X39.624 Y158.396 E230.42720
G1 X39.624 Y133.446 E232.69765
G1 X56.874 Y133.446 E234.26740
G1 X56.874 Y133.933 E234.31172
G1 X66.960 Y133.931 E235.22955
G1 X64.703 Y132.829 E235.45811
G1 X64.703 Y27.646 E245.02976
G1 X169.052 Y27.646 E254.52552
G1 X169.052 Y133.138 E264.12529
G1 X164.310 Y135.457 E264.60565
G1 X162.010 Y137.246 E264.87081
G1 X167.428 Y137.246 E265.36385
G1 X169.146 Y137.822 E265.52874
G1 X169.542 Y138.020 E265.56903
G1 X170.146 Y138.219 E265.62690
G1 X170.547 Y138.421 E265.66776
G1 X171.144 Y138.618 E265.72497
G1 X171.548 Y138.822 E265.76615
G1 X172.142 Y139.018 E265.82307
G1 X172.550 Y139.223 E265.86463
G1 X173.743 Y139.620 E265.97904
G1 X174.145 Y139.821 E266.01994
G1 X174.746 Y140.019 E266.07752
G1 X175.147 Y140.221 E266.11838
G1 X175.744 Y140.418 E266.17559
G1 X176.148 Y140.622 E266.21678
G1 X176.742 Y140.818 E266.27370
G1 X177.141 Y141.018 E266.31431
G1 X177.753 Y141.221 E266.37299
G1 X181.274 Y142.995 E266.73177
G1 X181.274 Y145.118 E266.92496
G1 X181.674 Y145.163 E266.96159
G1 X181.674 Y155.596 E267.91100
G1 X178.674 Y155.596 E268.18400
G1 X178.674 Y155.623 E268.18645
G1 X178.474 Y155.823 E268.21219
G1 X178.474 Y156.023 E268.23039
G1 X178.274 Y156.223 E268.25613
G1 X178.274 Y156.623 E268.29253
G1 X178.074 Y156.823 E268.31827
G1 X178.074 Y157.023 E268.33647
G1 X177.874 Y157.223 E268.36221
G1 X177.874 Y157.623 E268.39861
G1 X177.674 Y157.823 E268.42435
G1 X177.674 Y158.223 E268.46075
G1 X177.474 Y158.423 E268.48649
G1 X177.474 Y158.623 E268.50469
G1 X177.274 Y158.823 E268.53042
G1 X177.274 Y159.223 E268.56682
G1 X177.074 Y159.423 E268.59256
G1 X177.074 Y159.623 E268.61076
G1 X176.874 Y159.823 E268.63650
G1 X176.874 Y160.223 E268.67290
G1 X176.674 Y160.423 E268.69864
G1 X176.674 Y160.623 E268.71684
G1 X176.474 Y160.823 E268.74258
G1 X176.474 Y161.223 E268.77898
G1 X176.274 Y161.423 E268.80472
G1 X176.274 Y161.823 E268.84112
G1 X176.074 Y162.023 E268.86686
G1 X176.074 Y162.084 E268.87241
G1 X176.349 Y162.222 E268.90041
G1 X179.874 Y163.391 E269.23836
G1 X179.874 Y164.446 E269.33437
G1 X183.735 Y165.964 E269.71190
G1 X182.408 Y169.360 E270.04369
