;START_OF_HEADER
;HEADER_VERSION:0.1
;FLAVOR:Griffin
;GENERATOR.NAME:Cura_SteamEngine
;GENERATOR.VERSION:3.2.1
;GENERATOR.BUILD_DATE:2018-02-14
;TARGET_MACHINE.NAME:Ultimaker 3
;EXTRUDER_TRAIN.0.INITIAL_TEMPERATURE:260
;EXTRUDER_TRAIN.0.MATERIAL.VOLUME_USED:32647
;EXTRUDER_TRAIN.0.MATERIAL.GUID:60636bb4-518f-42e7-8237-fe77b194ebe0
;EXTRUDER_TRAIN.0.NOZZLE.DIAMETER:0.8
;EXTRUDER_TRAIN.0.NOZZLE.NAME:AA 0.8
;BUILD_PLATE.INITIAL_TEMPERATURE:90
;PRINT.TIME:8448
;PRINT.SIZE.MIN.X:9
;PRINT.SIZE.MIN.Y:6
;PRINT.SIZE.MIN.Z:0.27
;PRINT.SIZE.MAX.X:170.95
;PRINT.SIZE.MAX.Y:189.15
;PRINT.SIZE.MAX.Z:11.07
;END_OF_HEADER
;Generated with Cura_SteamEngine 3.2.1
T0
M82 ;absolute extrusion mode

G92 E0
M109 S260
G0 F15000 X9 Y6 Z2
G280
G1 F1500 E-6.5
;LAYER_COUNT:55
;LAYER:0
M107
M204 S625
M205 X30 Y30
G0 F6000 X85.409 Y30.556 Z0.27
M204 S500
M205 X25 Y25
;TYPE:SKIRT
G1 F900 E0
G1 F1200 X85.682 Y29.88 E0.0216
G1 X86.027 Y29.238 E0.04319
G1 X86.441 Y28.637 E0.06481
G1 X87 Y28.003 E0.08985
G1 X87.205 Y27.798 E0.09844
G1 X87.748 Y27.311 E0.12005
G1 X88.341 Y26.887 E0.14165
G1 X88.977 Y26.53 E0.16326
G1 X89.648 Y26.245 E0.18486
G1 X90.346 Y26.036 E0.20644
G1 X91.063 Y25.904 E0.22804
G1 X91.907 Y25.85 E0.2531
G1 X141.493 Y25.85 E1.72217
G1 X142.221 Y25.89 E1.74377
G1 X142.94 Y26.009 E1.76536
G1 X143.642 Y26.207 E1.78697
G1 X144.318 Y26.48 E1.80857
G1 X144.96 Y26.825 E1.83016
G1 X145.561 Y27.239 E1.85178
G1 X146.195 Y27.798 E1.87682
G1 X146.4 Y28.003 E1.88541
G1 X146.887 Y28.546 E1.90702
G1 X147.311 Y29.139 E1.92862
G1 X147.668 Y29.775 E1.95023
G1 X147.953 Y30.446 E1.97182
G1 X148.162 Y31.144 E1.99341
G1 X148.294 Y31.861 E2.01501
G1 X148.348 Y32.705 E2.04007
G1 X148.348 Y63.749 E2.95979
G1 X168.312 Y79.276 E3.70909
G1 X168.862 Y79.754 E3.73068
G1 X169.356 Y80.29 E3.75227
G1 X169.789 Y80.877 E3.77388
G1 X170.209 Y81.617 E3.79909
G1 X170.28 Y81.763 E3.8039
G1 X170.563 Y82.435 E3.82551
G1 X170.77 Y83.134 E3.8471
G1 X170.899 Y83.852 E3.86872
G1 X170.95 Y84.671 E3.89303
G1 X170.95 Y182.295 E6.7853
G1 X170.91 Y183.023 E6.8069
G1 X170.791 Y183.742 E6.82849
G1 X170.593 Y184.444 E6.8501
G1 X170.32 Y185.12 E6.8717
G1 X169.975 Y185.762 E6.89329
G1 X169.561 Y186.363 E6.91491
G1 X169.002 Y186.997 E6.93995
G1 X168.797 Y187.202 E6.94854
G1 X168.254 Y187.689 E6.97015
G1 X167.661 Y188.113 E6.99175
G1 X167.025 Y188.47 E7.01336
G1 X166.354 Y188.755 E7.03496
G1 X165.656 Y188.964 E7.05654
G1 X164.939 Y189.096 E7.07814
G1 X164.095 Y189.15 E7.1032
G1 X68.905 Y189.15 E9.92336
G1 X68.177 Y189.11 E9.94496
G1 X67.458 Y188.991 E9.96655
G1 X66.756 Y188.793 E9.98816
G1 X66.08 Y188.52 E10.00976
G1 X65.438 Y188.175 E10.03135
G1 X64.837 Y187.761 E10.05297
G1 X64.203 Y187.202 E10.07801
G1 X63.998 Y186.997 E10.0866
G1 X63.511 Y186.454 E10.10821
G1 X63.087 Y185.861 E10.12981
G1 X62.73 Y185.225 E10.15142
G1 X62.445 Y184.554 E10.17301
G1 X62.236 Y183.856 E10.1946
G1 X62.104 Y183.139 E10.2162
G1 X62.05 Y182.295 E10.24126
G1 X62.05 Y84.609 E13.13536
G1 X62.09 Y83.881 E13.15696
G1 X62.209 Y83.162 E13.17856
G1 X62.407 Y82.46 E13.20016
G1 X62.68 Y81.784 E13.22176
G1 X63.025 Y81.142 E13.24336
G1 X63.439 Y80.541 E13.26498
G1 X63.916 Y79.99 E13.28657
G1 X64.45 Y79.494 E13.30816
G1 X65.036 Y79.059 E13.32978
G1 X65.811 Y78.619 E13.35619
G1 X66.13 Y78.465 E13.36668
G1 X85.052 Y63.748 E14.07688
G1 X85.052 Y32.705 E14.99657
G1 X85.092 Y31.977 E15.01818
G1 X85.211 Y31.258 E15.03977
G1 X85.409 Y30.556 E15.06138
M204 S625
M205 X30 Y30
G0 F6000 X86.108 Y30.676
M204 S500
M205 X25 Y25
G1 F1200 X86.381 Y30.043 E15.0818
G1 X86.725 Y29.445 E15.10224
G1 X87.135 Y28.891 E15.12266
G1 X87.495 Y28.498 E15.13845
G1 X87.7 Y28.293 E15.14704
G1 X88.215 Y27.834 E15.16747
G1 X88.779 Y27.438 E15.18789
G1 X89.386 Y27.11 E15.20833
G1 X90.027 Y26.855 E15.22877
G1 X90.693 Y26.675 E15.24921
G1 X91.375 Y26.574 E15.26964
G1 X91.907 Y26.55 E15.28541
G1 X141.493 Y26.55 E16.75448
G1 X142.181 Y26.59 E16.7749
G1 X142.861 Y26.709 E16.79535
G1 X143.522 Y26.906 E16.81578
G1 X144.155 Y27.179 E16.83621
G1 X144.753 Y27.523 E16.85665
G1 X145.307 Y27.933 E16.87706
G1 X145.7 Y28.293 E16.89285
G1 X145.905 Y28.498 E16.90144
G1 X146.364 Y29.013 E16.92188
G1 X146.76 Y29.577 E16.9423
G1 X147.088 Y30.184 E16.96274
G1 X147.343 Y30.825 E16.98318
G1 X147.523 Y31.491 E17.00362
G1 X147.624 Y32.173 E17.02404
G1 X147.648 Y32.705 E17.03982
G1 X147.648 Y64.091 E17.96968
G1 X167.882 Y79.828 E18.72911
G1 X168.401 Y80.283 E18.74956
G1 X168.864 Y80.794 E18.76999
G1 X169.264 Y81.355 E18.7904
G1 X169.58 Y81.923 E18.80966
G1 X169.651 Y82.069 E18.81447
G1 X169.916 Y82.706 E18.83491
G1 X170.106 Y83.369 E18.85534
G1 X170.217 Y84.049 E18.87575
G1 X170.25 Y84.671 E18.89421
G1 X170.25 Y182.295 E21.78648
G1 X170.21 Y182.983 E21.8069
G1 X170.091 Y183.663 E21.82735
G1 X169.894 Y184.324 E21.84778
G1 X169.621 Y184.957 E21.86821
G1 X169.277 Y185.555 E21.88864
G1 X168.867 Y186.109 E21.90906
G1 X168.507 Y186.502 E21.92485
G1 X168.302 Y186.707 E21.93344
G1 X167.787 Y187.166 E21.95388
G1 X167.223 Y187.562 E21.9743
G1 X166.616 Y187.89 E21.99474
G1 X165.975 Y188.145 E22.01518
G1 X165.309 Y188.325 E22.03562
G1 X164.627 Y188.426 E22.05604
G1 X164.095 Y188.45 E22.07182
G1 X68.905 Y188.45 E24.89198
G1 X68.217 Y188.41 E24.9124
G1 X67.537 Y188.291 E24.93285
G1 X66.876 Y188.094 E24.95328
G1 X66.243 Y187.821 E24.97371
G1 X65.645 Y187.477 E24.99414
G1 X65.091 Y187.067 E25.01456
G1 X64.698 Y186.707 E25.03035
G1 X64.493 Y186.502 E25.03894
G1 X64.034 Y185.987 E25.05938
G1 X63.638 Y185.423 E25.0798
G1 X63.31 Y184.816 E25.10024
G1 X63.055 Y184.175 E25.12068
G1 X62.875 Y183.509 E25.14112
G1 X62.774 Y182.827 E25.16154
G1 X62.75 Y182.295 E25.17732
G1 X62.75 Y84.609 E28.07143
G1 X62.79 Y83.921 E28.09184
G1 X62.909 Y83.241 E28.1123
G1 X63.106 Y82.58 E28.13273
G1 X63.379 Y81.947 E28.15315
G1 X63.723 Y81.349 E28.17359
G1 X64.133 Y80.795 E28.19401
G1 X64.605 Y80.292 E28.21445
G1 X65.132 Y79.847 E28.23488
G1 X65.707 Y79.466 E28.25532
G1 X66.116 Y79.25 E28.26902
G1 X66.497 Y79.066 E28.28156
G1 X85.752 Y64.09 E29.00425
G1 X85.752 Y32.705 E29.93408
G1 X85.792 Y32.017 E29.9545
G1 X85.911 Y31.337 E29.97495
G1 X86.108 Y30.676 E29.99538
M204 S625
M205 X30 Y30
G0 F6000 X86.808 Y30.805
M204 S500
M205 X25 Y25
G1 F1200 X87.079 Y30.216 E30.01459
G1 X87.421 Y29.666 E30.03378
G1 X87.99 Y28.993 E30.05989
G1 X88.195 Y28.788 E30.06848
G1 X88.68 Y28.359 E30.08766
G1 X89.215 Y27.993 E30.10687
G1 X89.79 Y27.696 E30.12604
G1 X90.398 Y27.472 E30.14524
G1 X91.029 Y27.324 E30.16444
G1 X91.907 Y27.25 E30.19054
G1 X141.493 Y27.25 E31.65961
G1 X142.14 Y27.29 E31.67882
G1 X142.776 Y27.409 E31.69798
G1 X143.393 Y27.606 E31.71717
G1 X143.982 Y27.877 E31.73638
G1 X144.532 Y28.219 E31.75557
G1 X145.205 Y28.788 E31.78168
G1 X145.41 Y28.993 E31.79027
G1 X145.839 Y29.478 E31.80945
G1 X146.205 Y30.013 E31.82866
G1 X146.502 Y30.588 E31.84783
G1 X146.726 Y31.196 E31.86703
G1 X146.874 Y31.827 E31.88623
G1 X146.948 Y32.705 E31.91233
G1 X146.948 Y64.434 E32.85236
G1 X167.452 Y80.381 E33.62192
G1 X167.938 Y80.809 E33.64111
G1 X168.367 Y81.294 E33.66029
G1 X168.734 Y81.829 E33.67951
G1 X168.95 Y82.229 E33.69298
G1 X169.021 Y82.375 E33.69779
G1 X169.268 Y82.974 E33.71698
G1 X169.439 Y83.599 E33.73618
G1 X169.532 Y84.24 E33.75537
G1 X169.55 Y84.671 E33.76815
G1 X169.55 Y182.295 E36.66042
G1 X169.51 Y182.942 E36.67963
G1 X169.391 Y183.578 E36.6988
G1 X169.194 Y184.195 E36.71798
G1 X168.923 Y184.784 E36.73719
G1 X168.581 Y185.334 E36.75638
G1 X168.012 Y186.007 E36.78249
G1 X167.807 Y186.212 E36.79108
G1 X167.322 Y186.641 E36.81026
G1 X166.787 Y187.007 E36.82947
G1 X166.212 Y187.304 E36.84864
G1 X165.604 Y187.528 E36.86784
G1 X164.973 Y187.676 E36.88704
G1 X164.095 Y187.75 E36.91314
G1 X68.905 Y187.75 E39.7333
G1 X68.258 Y187.71 E39.75251
G1 X67.622 Y187.591 E39.77168
G1 X67.005 Y187.394 E39.79087
G1 X66.416 Y187.123 E39.81007
G1 X65.866 Y186.781 E39.82926
G1 X65.193 Y186.212 E39.85537
G1 X64.988 Y186.007 E39.86396
G1 X64.559 Y185.522 E39.88315
G1 X64.193 Y184.987 E39.90235
G1 X63.896 Y184.412 E39.92152
G1 X63.672 Y183.804 E39.94072
G1 X63.524 Y183.173 E39.95992
G1 X63.45 Y182.295 E39.98603
G1 X63.45 Y84.609 E42.88013
G1 X63.49 Y83.962 E42.89934
G1 X63.609 Y83.326 E42.91851
G1 X63.806 Y82.709 E42.9377
G1 X64.077 Y82.12 E42.9569
G1 X64.419 Y81.57 E42.97609
G1 X64.826 Y81.066 E42.99528
G1 X65.292 Y80.616 E43.01448
G1 X65.809 Y80.227 E43.03365
G1 X66.42 Y79.88 E43.05446
G1 X66.814 Y79.69 E43.06742
G1 X66.86 Y79.671 E43.0689
G1 X86.452 Y64.434 E43.80422
G1 X86.452 Y32.705 E44.74424
G1 X86.492 Y32.058 E44.76345
G1 X86.611 Y31.422 E44.78262
G1 X86.808 Y30.805 E44.8018
M204 S625
M205 X30 Y30
G0 F6000 X87.311 Y31.512
M204 S500
M205 X25 Y25
G1 F1200 X87.507 Y30.942 E44.81966
G1 X87.777 Y30.403 E44.83752
G1 X88.116 Y29.904 E44.85539
G1 X88.485 Y29.488 E44.87187
G1 X88.69 Y29.283 E44.88046
G1 X89.143 Y28.885 E44.89832
G1 X89.646 Y28.552 E44.9162
G1 X90.188 Y28.287 E44.93407
G1 X90.76 Y28.097 E44.95193
G1 X91.352 Y27.984 E44.96978
G1 X91.907 Y27.95 E44.98626
G1 X141.493 Y27.95 E46.45532
G1 X142.095 Y27.99 E46.4732
G1 X142.686 Y28.109 E46.49106
G1 X143.256 Y28.305 E46.50891
G1 X143.795 Y28.575 E46.52677
G1 X144.294 Y28.914 E46.54465
G1 X144.71 Y29.283 E46.56112
G1 X144.915 Y29.488 E46.56971
G1 X145.313 Y29.941 E46.58758
G1 X145.646 Y30.444 E46.60545
G1 X145.911 Y30.986 E46.62332
G1 X146.101 Y31.558 E46.64118
G1 X146.214 Y32.15 E46.65903
G1 X146.248 Y32.705 E46.67551
G1 X146.248 Y64.776 E47.62566
G1 X167.022 Y80.933 E48.40536
G1 X167.473 Y81.334 E48.42324
G1 X167.866 Y81.791 E48.4411
G1 X168.321 Y82.535 E48.46693
G1 X168.392 Y82.681 E48.47174
G1 X168.619 Y83.24 E48.48962
G1 X168.77 Y83.823 E48.50746
G1 X168.85 Y84.671 E48.5327
G1 X168.85 Y182.295 E51.42497
G1 X168.81 Y182.897 E51.44284
G1 X168.691 Y183.488 E51.4607
G1 X168.495 Y184.058 E51.47856
G1 X168.225 Y184.597 E51.49642
G1 X167.886 Y185.096 E51.51429
G1 X167.517 Y185.512 E51.53077
G1 X167.312 Y185.717 E51.53936
G1 X166.859 Y186.115 E51.55722
G1 X166.356 Y186.448 E51.57509
G1 X165.814 Y186.713 E51.59297
G1 X165.242 Y186.903 E51.61082
G1 X164.65 Y187.016 E51.62868
G1 X164.095 Y187.05 E51.64515
G1 X68.905 Y187.05 E54.46531
G1 X68.303 Y187.01 E54.48319
G1 X67.712 Y186.891 E54.50105
G1 X67.142 Y186.695 E54.5189
G1 X66.603 Y186.425 E54.53676
G1 X66.104 Y186.086 E54.55464
G1 X65.688 Y185.717 E54.57111
G1 X65.483 Y185.512 E54.5797
G1 X65.085 Y185.059 E54.59757
G1 X64.752 Y184.556 E54.61544
G1 X64.487 Y184.014 E54.63331
G1 X64.297 Y183.442 E54.65117
G1 X64.184 Y182.85 E54.66902
G1 X64.15 Y182.295 E54.6855
G1 X64.15 Y84.609 E57.57961
G1 X64.19 Y84.007 E57.59748
G1 X64.309 Y83.416 E57.61534
G1 X64.505 Y82.846 E57.6332
G1 X64.775 Y82.307 E57.65106
G1 X65.114 Y81.808 E57.66893
G1 X65.516 Y81.359 E57.68679
G1 X65.974 Y80.966 E57.70467
G1 X66.724 Y80.511 E57.73065
G1 X67.118 Y80.321 E57.74361
G1 X67.214 Y80.282 E57.74668
G1 X87.152 Y64.776 E58.49499
G1 X87.152 Y32.705 E59.44514
G1 X87.192 Y32.103 E59.46302
G1 X87.311 Y31.512 E59.48088
M204 S625
M205 X30 Y30
G0 F6000 X88.011 Y31.61
M204 S500
M205 X25 Y25
G1 F1200 X88.207 Y31.091 E59.49732
G1 X88.475 Y30.606 E59.51373
G1 X88.98 Y29.983 E59.53749
G1 X89.185 Y29.778 E59.54608
G1 X89.604 Y29.415 E59.56251
G1 X90.071 Y29.116 E59.57893
G1 X90.577 Y28.887 E59.59539
G1 X91.109 Y28.734 E59.61179
G1 X91.907 Y28.65 E59.63556
G1 X141.493 Y28.65 E61.10463
G1 X142.046 Y28.69 E61.12105
G1 X142.588 Y28.809 E61.13749
G1 X143.107 Y29.005 E61.15393
G1 X143.592 Y29.273 E61.17035
G1 X144.215 Y29.778 E61.19411
G1 X144.42 Y29.983 E61.2027
G1 X144.783 Y30.402 E61.21912
G1 X145.082 Y30.869 E61.23555
G1 X145.311 Y31.375 E61.252
G1 X145.464 Y31.907 E61.2684
G1 X145.548 Y32.705 E61.29218
G1 X145.548 Y65.118 E62.25246
G1 X166.593 Y81.486 E63.04234
G1 X167.005 Y81.857 E63.05876
G1 X167.359 Y82.284 E63.0752
G1 X167.691 Y82.841 E63.09441
G1 X167.762 Y82.987 E63.09922
G1 X167.968 Y83.502 E63.11565
G1 X168.098 Y84.041 E63.13208
G1 X168.15 Y84.671 E63.1508
G1 X168.15 Y182.295 E66.04307
G1 X168.11 Y182.848 E66.0595
G1 X167.991 Y183.39 E66.07594
G1 X167.795 Y183.909 E66.09238
G1 X167.527 Y184.394 E66.10879
G1 X167.022 Y185.017 E66.13255
G1 X166.817 Y185.222 E66.14114
G1 X166.398 Y185.585 E66.15757
G1 X165.931 Y185.884 E66.17399
G1 X165.425 Y186.113 E66.19045
G1 X164.893 Y186.266 E66.20685
G1 X164.095 Y186.35 E66.23062
G1 X68.905 Y186.35 E69.05078
G1 X68.352 Y186.31 E69.06721
G1 X67.81 Y186.191 E69.08365
G1 X67.291 Y185.995 E69.10008
G1 X66.806 Y185.727 E69.1165
G1 X66.183 Y185.222 E69.14026
G1 X65.978 Y185.017 E69.14885
G1 X65.615 Y184.598 E69.16527
G1 X65.316 Y184.131 E69.1817
G1 X65.087 Y183.625 E69.19816
G1 X64.934 Y183.093 E69.21456
G1 X64.85 Y182.295 E69.23833
G1 X64.85 Y84.609 E72.13244
G1 X64.89 Y84.056 E72.14886
G1 X65.009 Y83.514 E72.1653
G1 X65.205 Y82.995 E72.18174
G1 X65.473 Y82.51 E72.19816
G1 X65.808 Y82.068 E72.21459
G1 X66.203 Y81.679 E72.23101
G1 X66.65 Y81.35 E72.24745
G1 X67.028 Y81.141 E72.26025
G1 X67.422 Y80.951 E72.27321
G1 X67.569 Y80.893 E72.27789
G1 X87.852 Y65.118 E73.03916
G1 X87.852 Y32.705 E73.99945
G1 X87.892 Y32.152 E74.01587
G1 X88.011 Y31.61 E74.03231
M204 S625
M205 X30 Y30
G0 F6000 X88.711 Y31.718
M204 S500
M205 X25 Y25
G1 F1200 X88.905 Y31.255 E74.04719
G1 X89.171 Y30.83 E74.06204
G1 X89.475 Y30.478 E74.07582
G1 X89.68 Y30.273 E74.08441
G1 X90.061 Y29.947 E74.09926
G1 X90.49 Y29.687 E74.11413
G1 X90.955 Y29.497 E74.12901
G1 X91.443 Y29.384 E74.14385
G1 X91.907 Y29.35 E74.15763
G1 X141.493 Y29.35 E75.6267
G1 X141.993 Y29.39 E75.64156
G1 X142.48 Y29.509 E75.65641
G1 X142.943 Y29.703 E75.67128
G1 X143.368 Y29.969 E75.68614
G1 X143.72 Y30.273 E75.69992
G1 X143.925 Y30.478 E75.70851
G1 X144.251 Y30.859 E75.72336
G1 X144.511 Y31.288 E75.73822
G1 X144.701 Y31.753 E75.75311
G1 X144.814 Y32.241 E75.76795
G1 X144.848 Y32.705 E75.78173
G1 X144.848 Y65.461 E76.75218
G1 X166.163 Y82.039 E77.55219
G1 X166.533 Y82.377 E77.56703
G1 X166.845 Y82.77 E77.5819
G1 X167.062 Y83.147 E77.59479
G1 X167.133 Y83.293 E77.5996
G1 X167.316 Y83.761 E77.61448
G1 X167.422 Y84.251 E77.62934
G1 X167.45 Y84.671 E77.64181
G1 X167.45 Y182.295 E80.53408
G1 X167.41 Y182.795 E80.54894
G1 X167.291 Y183.282 E80.56379
G1 X167.097 Y183.745 E80.57866
G1 X166.831 Y184.17 E80.59352
G1 X166.527 Y184.522 E80.6073
G1 X166.322 Y184.727 E80.61589
G1 X165.941 Y185.053 E80.63074
G1 X165.512 Y185.313 E80.6456
G1 X165.047 Y185.503 E80.66049
G1 X164.559 Y185.616 E80.67533
G1 X164.095 Y185.65 E80.68911
G1 X68.905 Y185.65 E83.50927
G1 X68.405 Y185.61 E83.52413
G1 X67.918 Y185.491 E83.53898
G1 X67.455 Y185.297 E83.55385
G1 X67.03 Y185.031 E83.56871
G1 X66.678 Y184.727 E83.58249
G1 X66.473 Y184.522 E83.59108
G1 X66.147 Y184.141 E83.60593
G1 X65.887 Y183.712 E83.6208
G1 X65.697 Y183.247 E83.63568
G1 X65.584 Y182.759 E83.65052
G1 X65.55 Y182.295 E83.6643
G1 X65.55 Y84.609 E86.55841
G1 X65.59 Y84.109 E86.57327
G1 X65.709 Y83.622 E86.58812
G1 X65.903 Y83.159 E86.60299
G1 X66.169 Y82.734 E86.61785
G1 X66.499 Y82.356 E86.63271
G1 X66.884 Y82.035 E86.64756
G1 X67.332 Y81.772 E86.66296
G1 X67.726 Y81.582 E86.67592
G1 X67.922 Y81.505 E86.68215
G1 X88.552 Y65.461 E87.45643
G1 X88.552 Y32.705 E88.42688
G1 X88.592 Y32.205 E88.44174
G1 X88.711 Y31.718 E88.45659
M204 S625
M205 X30 Y30
G0 F6000 X89.41 Y31.838
M204 S500
M205 X25 Y25
G1 F1200 X89.604 Y31.441 E88.46968
G1 X89.97 Y30.973 E88.48728
G1 X90.175 Y30.768 E88.49587
G1 X90.514 Y30.484 E88.50898
G1 X90.899 Y30.267 E88.52207
G1 X91.317 Y30.122 E88.53518
G1 X91.907 Y30.05 E88.55279
G1 X141.493 Y30.05 E90.02185
G1 X141.933 Y30.09 E90.03494
G1 X142.36 Y30.208 E90.04807
G1 X142.757 Y30.402 E90.06116
G1 X143.225 Y30.768 E90.07876
G1 X143.43 Y30.973 E90.08735
G1 X143.714 Y31.312 E90.10045
G1 X143.931 Y31.697 E90.11354
G1 X144.076 Y32.115 E90.12665
G1 X144.148 Y32.705 E90.14426
G1 X144.148 Y65.803 E91.12484
G1 X165.733 Y82.591 E91.93498
G1 X166.056 Y82.893 E91.94808
G1 X166.32 Y83.248 E91.96119
G1 X166.432 Y83.454 E91.96814
G1 X166.503 Y83.6 E91.97295
G1 X166.66 Y84.013 E91.98604
G1 X166.74 Y84.448 E91.99914
G1 X166.75 Y84.671 E92.00575
G1 X166.75 Y182.295 E94.89802
G1 X166.71 Y182.735 E94.91111
G1 X166.592 Y183.162 E94.92424
G1 X166.398 Y183.559 E94.93733
