;START_OF_HEADER
;HEADER_VERSION:0.1
;FLAVOR:Griffin
;GENERATOR.NAME:Cura_SteamEngine
;GENERATOR.VERSION:3.2.1
;GENERATOR.BUILD_DATE:2018-02-14
;TARGET_MACHINE.NAME:Ultimaker 3
;EXTRUDER_TRAIN.0.INITIAL_TEMPERATURE:235
;EXTRUDER_TRAIN.0.MATERIAL.VOLUME_USED:30634
;EXTRUDER_TRAIN.0.MATERIAL.GUID:60636bb4-518f-42e7-8237-fe77b194ebe0
;EXTRUDER_TRAIN.0.NOZZLE.DIAMETER:0.4
;EXTRUDER_TRAIN.0.NOZZLE.NAME:AA 0.4
;BUILD_PLATE.INITIAL_TEMPERATURE:80
;PRINT.TIME:29063
;PRINT.SIZE.MIN.X:9
;PRINT.SIZE.MIN.Y:6
;PRINT.SIZE.MIN.Z:0.27
;PRINT.SIZE.MAX.X:171.125
;PRINT.SIZE.MAX.Y:189.325
;PRINT.SIZE.MAX.Z:10.97
;END_OF_HEADER
;Generated with Cura_SteamEngine 3.2.1
T0
M82 ;absolute extrusion mode

G92 E0
M109 S235
G0 F15000 X9 Y6 Z2
G280
G1 F1500 E-6.5
;LAYER_COUNT:109
;LAYER:0
M107
M204 S625
M205 X6 Y6
G0 F5454.5 X85.234 Y30.425 Z0.27
M204 S500
M205 X5 Y5
;TYPE:SKIRT
G1 F1500 E0
G1 F1200 X85.507 Y29.739 E0.01094
G1 X85.853 Y29.086 E0.02188
G1 X86.267 Y28.474 E0.03283
G1 X86.876 Y27.777 E0.04654
G1 X86.979 Y27.674 E0.0487
G1 X87.529 Y27.181 E0.05964
G1 X88.129 Y26.75 E0.07058
G1 X88.772 Y26.386 E0.08153
G1 X89.45 Y26.094 E0.09246
G1 X90.156 Y25.877 E0.1034
G1 X90.882 Y25.738 E0.11435
G1 X91.805 Y25.675 E0.12806
G1 X141.595 Y25.675 E0.86561
G1 X142.333 Y25.715 E0.87656
G1 X143.061 Y25.834 E0.88749
G1 X143.773 Y26.032 E0.89844
G1 X144.459 Y26.305 E0.90937
G1 X145.112 Y26.651 E0.92032
G1 X145.724 Y27.065 E0.93127
G1 X146.421 Y27.674 E0.94498
G1 X146.524 Y27.777 E0.94713
G1 X147.017 Y28.327 E0.95808
G1 X147.448 Y28.927 E0.96902
G1 X147.812 Y29.57 E0.97996
G1 X148.104 Y30.248 E0.9909
G1 X148.321 Y30.954 E1.00184
G1 X148.46 Y31.68 E1.01279
G1 X148.523 Y32.603 E1.02649
G1 X148.523 Y63.669 E1.48669
G1 X168.497 Y79.243 E1.86188
G1 X169.054 Y79.728 E1.87282
G1 X169.555 Y80.27 E1.88375
G1 X169.995 Y80.864 E1.8947
G1 X170.368 Y81.501 E1.90564
G1 X170.67 Y82.175 E1.91658
G1 X170.898 Y82.878 E1.92752
G1 X171.048 Y83.601 E1.93846
G1 X171.125 Y84.625 E1.95367
G1 X171.125 Y182.397 E3.402
G1 X171.085 Y183.135 E3.41295
G1 X170.966 Y183.863 E3.42388
G1 X170.768 Y184.575 E3.43482
G1 X170.495 Y185.261 E3.44576
G1 X170.149 Y185.914 E3.45671
G1 X169.735 Y186.526 E3.46765
G1 X169.126 Y187.223 E3.48136
G1 X169.023 Y187.326 E3.48352
G1 X168.473 Y187.819 E3.49446
G1 X167.873 Y188.25 E3.50541
G1 X167.23 Y188.614 E3.51635
G1 X166.552 Y188.906 E3.52729
G1 X165.846 Y189.123 E3.53823
G1 X165.12 Y189.262 E3.54918
G1 X164.197 Y189.325 E3.56288
G1 X68.803 Y189.325 E4.97598
G1 X68.065 Y189.285 E4.98693
G1 X67.337 Y189.166 E4.99786
G1 X66.625 Y188.968 E5.00881
G1 X65.939 Y188.695 E5.01974
G1 X65.286 Y188.349 E5.03069
G1 X64.674 Y187.935 E5.04164
G1 X63.977 Y187.326 E5.05535
G1 X63.874 Y187.223 E5.05751
G1 X63.381 Y186.673 E5.06845
G1 X62.95 Y186.073 E5.07939
G1 X62.586 Y185.43 E5.09034
G1 X62.294 Y184.752 E5.10127
G1 X62.077 Y184.046 E5.11221
G1 X61.938 Y183.32 E5.12316
G1 X61.875 Y182.397 E5.13687
G1 X61.875 Y84.363 E6.58907
G1 X61.915 Y83.625 E6.60002
G1 X62.034 Y82.897 E6.61095
G1 X62.232 Y82.185 E6.6219
G1 X62.505 Y81.499 E6.63283
G1 X62.851 Y80.846 E6.64378
G1 X63.265 Y80.234 E6.65473
G1 X63.743 Y79.671 E6.66567
G1 X64.279 Y79.163 E6.67661
G1 X64.867 Y78.716 E6.68755
G1 X65.698 Y78.234 E6.70178
G1 X65.894 Y78.138 E6.70501
G1 X66.574 Y77.849 E6.71596
G1 X66.68 Y77.817 E6.7176
G1 X84.877 Y63.664 E7.05909
G1 X84.877 Y32.603 E7.5192
G1 X84.917 Y31.865 E7.53015
G1 X85.036 Y31.137 E7.54108
G1 X85.234 Y30.425 E7.55203
M204 S625
M205 X6 Y6
G0 F5454.5 X85.584 Y30.483
M204 S500
M205 X5 Y5
G1 F1200 X85.857 Y29.818 E7.56267
G1 X86.202 Y29.186 E7.57334
G1 X86.615 Y28.597 E7.584
G1 X87.123 Y28.024 E7.59534
G1 X87.226 Y27.921 E7.5975
G1 X87.763 Y27.442 E7.60816
G1 X88.349 Y27.025 E7.61881
G1 X88.978 Y26.675 E7.62947
G1 X89.641 Y26.397 E7.64012
G1 X90.332 Y26.195 E7.65079
G1 X91.04 Y26.07 E7.66144
G1 X91.805 Y26.025 E7.67279
G1 X141.595 Y26.025 E8.41035
G1 X142.313 Y26.065 E8.421
G1 X143.023 Y26.184 E8.43166
G1 X143.715 Y26.382 E8.44232
G1 X144.38 Y26.655 E8.45297
G1 X145.012 Y27 E8.46364
G1 X145.601 Y27.413 E8.4743
G1 X146.174 Y27.921 E8.48564
G1 X146.277 Y28.024 E8.4878
G1 X146.756 Y28.561 E8.49846
G1 X147.173 Y29.147 E8.50911
G1 X147.523 Y29.776 E8.51977
G1 X147.801 Y30.439 E8.53042
G1 X148.003 Y31.13 E8.54109
G1 X148.128 Y31.838 E8.55174
G1 X148.173 Y32.603 E8.56309
G1 X148.173 Y63.841 E9.02583
G1 X168.281 Y79.519 E9.40353
G1 X168.823 Y79.992 E9.41419
G1 X169.309 Y80.522 E9.42484
G1 X169.734 Y81.103 E9.4355
G1 X170.091 Y81.728 E9.44617
G1 X170.376 Y82.388 E9.45682
G1 X170.587 Y83.076 E9.46748
G1 X170.72 Y83.783 E9.47813
G1 X170.775 Y84.625 E9.49063
G1 X170.775 Y182.397 E10.93896
G1 X170.735 Y183.115 E10.94961
G1 X170.616 Y183.825 E10.96028
G1 X170.418 Y184.517 E10.97094
G1 X170.145 Y185.182 E10.98159
G1 X169.8 Y185.814 E10.99225
G1 X169.387 Y186.403 E11.00291
G1 X168.879 Y186.976 E11.01425
G1 X168.776 Y187.079 E11.01641
G1 X168.239 Y187.558 E11.02707
G1 X167.653 Y187.975 E11.03772
G1 X167.024 Y188.325 E11.04839
G1 X166.361 Y188.603 E11.05904
G1 X165.67 Y188.805 E11.0697
G1 X164.962 Y188.93 E11.08035
G1 X164.197 Y188.975 E11.0917
G1 X68.803 Y188.975 E12.5048
G1 X68.085 Y188.935 E12.51546
G1 X67.375 Y188.816 E12.52612
G1 X66.683 Y188.618 E12.53678
G1 X66.018 Y188.345 E12.54743
G1 X65.386 Y188 E12.5581
G1 X64.797 Y187.587 E12.56875
G1 X64.224 Y187.079 E12.5801
G1 X64.121 Y186.976 E12.58225
G1 X63.642 Y186.439 E12.59291
G1 X63.225 Y185.853 E12.60357
G1 X62.875 Y185.224 E12.61423
G1 X62.597 Y184.561 E12.62488
G1 X62.395 Y183.87 E12.63555
G1 X62.27 Y183.162 E12.6462
G1 X62.225 Y182.397 E12.65755
G1 X62.225 Y84.363 E14.10976
G1 X62.265 Y83.645 E14.12041
G1 X62.384 Y82.935 E14.13107
G1 X62.582 Y82.243 E14.14173
G1 X62.855 Y81.578 E14.15238
G1 X63.2 Y80.946 E14.16305
G1 X63.613 Y80.357 E14.17371
G1 X64.089 Y79.818 E14.18436
G1 X64.621 Y79.334 E14.19501
G1 X65.204 Y78.913 E14.20566
G1 X65.852 Y78.548 E14.21668
G1 X66.048 Y78.452 E14.21991
G1 X66.711 Y78.172 E14.23058
G1 X66.845 Y78.132 E14.23265
G1 X85.227 Y63.835 E14.57761
G1 X85.227 Y32.603 E15.04026
G1 X85.267 Y31.885 E15.05091
G1 X85.386 Y31.175 E15.06158
G1 X85.584 Y30.483 E15.07224
M204 S625
M205 X6 Y6
G0 F5454.5 X85.934 Y30.544
M204 S500
M205 X5 Y5
G1 F1200 X86.206 Y29.899 E15.08261
G1 X86.55 Y29.29 E15.09297
G1 X86.962 Y28.724 E15.10334
G1 X87.371 Y28.272 E15.11237
G1 X87.474 Y28.169 E15.11453
G1 X87.996 Y27.703 E15.12489
G1 X88.568 Y27.3 E15.13526
G1 X89.182 Y26.965 E15.14562
G1 X89.831 Y26.702 E15.15599
G1 X90.505 Y26.515 E15.16635
G1 X91.196 Y26.405 E15.17672
G1 X91.805 Y26.375 E15.18575
G1 X141.595 Y26.375 E15.9233
G1 X142.294 Y26.415 E15.93368
G1 X142.983 Y26.534 E15.94403
G1 X143.654 Y26.732 E15.9544
G1 X144.299 Y27.004 E15.96477
G1 X144.908 Y27.348 E15.97513
G1 X145.474 Y27.76 E15.9855
G1 X145.926 Y28.169 E15.99453
G1 X146.029 Y28.272 E15.99669
G1 X146.495 Y28.794 E16.00705
G1 X146.898 Y29.366 E16.01742
G1 X147.233 Y29.98 E16.02778
G1 X147.496 Y30.629 E16.03815
G1 X147.683 Y31.303 E16.04851
G1 X147.793 Y31.994 E16.05888
G1 X147.823 Y32.603 E16.06791
G1 X147.823 Y64.011 E16.53317
G1 X168.066 Y79.795 E16.91341
G1 X168.593 Y80.256 E16.92378
G1 X169.063 Y80.774 E16.93415
G1 X169.471 Y81.342 E16.94451
G1 X169.812 Y81.953 E16.95487
G1 X170.08 Y82.599 E16.96523
G1 X170.274 Y83.272 E16.97561
G1 X170.389 Y83.962 E16.98597
G1 X170.425 Y84.625 E16.9958
G1 X170.425 Y182.397 E18.44413
G1 X170.385 Y183.096 E18.4545
G1 X170.266 Y183.785 E18.46486
G1 X170.068 Y184.456 E18.47522
G1 X169.796 Y185.101 E18.48559
G1 X169.452 Y185.71 E18.49595
G1 X169.04 Y186.276 E18.50632
G1 X168.631 Y186.728 E18.51535
G1 X168.528 Y186.831 E18.51751
G1 X168.006 Y187.297 E18.52788
G1 X167.434 Y187.7 E18.53824
G1 X166.82 Y188.035 E18.5486
G1 X166.171 Y188.298 E18.55898
G1 X165.497 Y188.485 E18.56934
G1 X164.806 Y188.595 E18.5797
G1 X164.197 Y188.625 E18.58874
G1 X68.803 Y188.625 E20.00184
G1 X68.104 Y188.585 E20.01221
G1 X67.415 Y188.466 E20.02257
G1 X66.744 Y188.268 E20.03293
G1 X66.099 Y187.996 E20.0433
G1 X65.49 Y187.652 E20.05366
G1 X64.924 Y187.24 E20.06403
G1 X64.472 Y186.831 E20.07306
G1 X64.369 Y186.728 E20.07522
G1 X63.903 Y186.206 E20.08558
G1 X63.5 Y185.634 E20.09595
G1 X63.165 Y185.02 E20.10631
G1 X62.902 Y184.371 E20.11668
G1 X62.715 Y183.697 E20.12704
G1 X62.605 Y183.006 E20.13741
G1 X62.575 Y182.397 E20.14644
G1 X62.575 Y84.363 E21.59865
G1 X62.615 Y83.664 E21.60902
G1 X62.734 Y82.975 E21.61938
G1 X62.932 Y82.304 E21.62974
G1 X63.204 Y81.659 E21.64011
G1 X63.548 Y81.05 E21.65047
G1 X63.96 Y80.484 E21.66084
G1 X64.433 Y79.969 E21.6712
G1 X64.962 Y79.511 E21.68157
G1 X65.54 Y79.116 E21.69194
G1 X66.006 Y78.862 E21.6998
G1 X66.202 Y78.766 E21.70303
G1 X66.847 Y78.495 E21.71339
G1 X67.009 Y78.448 E21.71589
G1 X85.577 Y64.006 E22.06435
G1 X85.577 Y32.603 E22.52953
G1 X85.617 Y31.904 E22.5399
G1 X85.736 Y31.215 E22.55026
G1 X85.934 Y30.544 E22.56063
M204 S625
M205 X6 Y6
G0 F5454.5 X86.283 Y30.606
M204 S500
M205 X5 Y5
G1 F1200 X86.555 Y29.983 E22.5707
G1 X86.899 Y29.397 E22.58076
G1 X87.309 Y28.855 E22.59083
G1 X87.618 Y28.519 E22.59759
G1 X87.721 Y28.416 E22.59975
G1 X88.229 Y27.965 E22.60981
G1 X88.787 Y27.577 E22.61988
G1 X89.386 Y27.256 E22.62995
G1 X90.018 Y27.008 E22.64
G1 X90.676 Y26.836 E22.65008
G1 X91.349 Y26.743 E22.66014
G1 X91.805 Y26.725 E22.6669
G1 X141.595 Y26.725 E23.40446
G1 X142.273 Y26.765 E23.41452
G1 X142.942 Y26.884 E23.42458
G1 X143.592 Y27.081 E23.43464
G1 X144.215 Y27.353 E23.44471
G1 X144.801 Y27.697 E23.45478
G1 X145.343 Y28.107 E23.46485
G1 X145.679 Y28.416 E23.47161
G1 X145.782 Y28.519 E23.47377
G1 X146.233 Y29.027 E23.48383
G1 X146.621 Y29.585 E23.4939
G1 X146.942 Y30.184 E23.50396
G1 X147.19 Y30.816 E23.51402
G1 X147.362 Y31.474 E23.5241
G1 X147.455 Y32.147 E23.53416
G1 X147.473 Y32.603 E23.54092
G1 X147.473 Y64.182 E24.00871
G1 X167.851 Y80.071 E24.39149
G1 X168.361 Y80.519 E24.40155
G1 X168.815 Y81.025 E24.41162
G1 X169.207 Y81.58 E24.42168
G1 X169.531 Y82.177 E24.43174
G1 X169.782 Y82.809 E24.44182
G1 X169.957 Y83.465 E24.45187
G1 X170.054 Y84.137 E24.46193
G1 X170.075 Y84.625 E24.46917
G1 X170.075 Y182.397 E25.9175
G1 X170.035 Y183.075 E25.92756
G1 X169.916 Y183.744 E25.93762
G1 X169.719 Y184.394 E25.94768
G1 X169.447 Y185.017 E25.95775
G1 X169.103 Y185.603 E25.96782
G1 X168.693 Y186.145 E25.97789
G1 X168.384 Y186.481 E25.98465
G1 X168.281 Y186.584 E25.98681
G1 X167.773 Y187.035 E25.99687
G1 X167.215 Y187.423 E26.00694
G1 X166.616 Y187.744 E26.017
G1 X165.984 Y187.992 E26.02706
G1 X165.326 Y188.164 E26.03713
G1 X164.653 Y188.257 E26.0472
G1 X164.197 Y188.275 E26.05396
G1 X68.803 Y188.275 E27.46706
G1 X68.125 Y188.235 E27.47712
G1 X67.456 Y188.116 E27.48719
G1 X66.806 Y187.919 E27.49725
G1 X66.183 Y187.647 E27.50732
G1 X65.597 Y187.303 E27.51738
G1 X65.055 Y186.893 E27.52745
G1 X64.719 Y186.584 E27.53421
G1 X64.616 Y186.481 E27.53637
G1 X64.165 Y185.973 E27.54643
G1 X63.777 Y185.415 E27.5565
G1 X63.456 Y184.816 E27.56657
G1 X63.208 Y184.184 E27.57663
G1 X63.036 Y183.526 E27.5867
G1 X62.943 Y182.853 E27.59676
G1 X62.925 Y182.397 E27.60352
G1 X62.925 Y84.363 E29.05573
G1 X62.965 Y83.685 E29.06579
G1 X63.084 Y83.016 E29.07586
G1 X63.281 Y82.366 E29.08592
G1 X63.553 Y81.743 E29.09599
G1 X63.897 Y81.157 E29.10606
G1 X64.307 Y80.615 E29.11612
G1 X64.777 Y80.125 E29.12618
G1 X65.302 Y79.694 E29.13624
G1 X66.16 Y79.177 E29.15108
G1 X66.356 Y79.081 E29.15431
G1 X66.982 Y78.818 E29.16437
G1 X67.173 Y78.763 E29.16732
G1 X85.927 Y64.177 E29.51926
G1 X85.927 Y32.603 E29.98697
G1 X85.967 Y31.925 E29.99704
G1 X86.086 Y31.256 E30.0071
G1 X86.283 Y30.606 E30.01716
M204 S625
M205 X6 Y6
G0 F5454.5 X86.633 Y30.67
M204 S500
M205 X5 Y5
G1 F1200 X86.905 Y30.07 E30.02692
G1 X87.247 Y29.507 E30.03668
G1 X87.866 Y28.767 E30.05097
G1 X87.969 Y28.664 E30.05313
G1 X88.462 Y28.227 E30.06289
G1 X89.004 Y27.854 E30.07263
G1 X89.588 Y27.549 E30.08239
G1 X90.204 Y27.317 E30.09214
G1 X90.844 Y27.161 E30.1019
G1 X91.805 Y27.075 E30.11619
G1 X141.595 Y27.075 E30.85375
G1 X142.252 Y27.115 E30.8635
G1 X142.9 Y27.234 E30.87326
G1 X143.528 Y27.431 E30.88301
G1 X144.128 Y27.703 E30.89277
G1 X144.691 Y28.045 E30.90253
G1 X145.431 Y28.664 E30.91682
G1 X145.534 Y28.767 E30.91897
G1 X145.971 Y29.26 E30.92873
G1 X146.344 Y29.802 E30.93848
G1 X146.649 Y30.386 E30.94824
G1 X146.881 Y31.002 E30.95799
G1 X147.037 Y31.642 E30.96775
G1 X147.123 Y32.603 E30.98204
G1 X147.123 Y64.353 E31.45236
G1 X167.636 Y80.347 E31.83768
G1 X168.13 Y80.782 E31.84743
G1 X168.567 Y81.275 E31.85719
G1 X168.941 Y81.816 E31.86693
G1 X169.247 Y82.399 E31.87668
G1 X169.481 Y83.015 E31.88644
G1 X169.638 Y83.655 E31.89621
G1 X169.725 Y84.625 E31.91063
G1 X169.725 Y182.397 E33.35896
G1 X169.685 Y183.054 E33.36871
G1 X169.566 Y183.702 E33.37847
G1 X169.369 Y184.33 E33.38822
G1 X169.097 Y184.93 E33.39798
G1 X168.755 Y185.493 E33.40774
G1 X168.136 Y186.233 E33.42203
G1 X168.033 Y186.336 E33.42419
G1 X167.54 Y186.773 E33.43394
G1 X166.998 Y187.146 E33.44369
G1 X166.414 Y187.451 E33.45345
G1 X165.798 Y187.683 E33.4632
G1 X165.158 Y187.839 E33.47296
G1 X164.197 Y187.925 E33.48725
G1 X68.803 Y187.925 E34.90035
G1 X68.146 Y187.885 E34.9101
G1 X67.498 Y187.766 E34.91986
G1 X66.87 Y187.569 E34.92961
G1 X66.27 Y187.297 E34.93937
G1 X65.707 Y186.955 E34.94913
G1 X64.967 Y186.336 E34.96342
G1 X64.864 Y186.233 E34.96558
G1 X64.427 Y185.74 E34.97534
G1 X64.054 Y185.198 E34.98508
G1 X63.749 Y184.614 E34.99484
G1 X63.517 Y183.998 E35.00459
G1 X63.361 Y183.358 E35.01435
G1 X63.275 Y182.397 E35.02865
G1 X63.275 Y84.363 E36.48085
G1 X63.315 Y83.706 E36.4906
G1 X63.434 Y83.058 E36.50036
G1 X63.631 Y82.43 E36.51011
G1 X63.903 Y81.83 E36.51987
G1 X64.245 Y81.267 E36.52963
G1 X64.653 Y80.75 E36.53939
G1 X65.12 Y80.287 E36.54913
G1 X65.641 Y79.883 E36.55889
G1 X66.314 Y79.491 E36.57043
G1 X66.51 Y79.395 E36.57366
G1 X67.118 Y79.142 E36.58342
G1 X67.334 Y79.081 E36.58674
G1 X86.277 Y64.349 E36.94222
G1 X86.277 Y32.603 E37.41249
G1 X86.317 Y31.946 E37.42224
G1 X86.436 Y31.298 E37.432
G1 X86.633 Y30.67 E37.44175
M204 S625
M205 X6 Y6
G0 F5454.5 X86.983 Y30.736
M204 S500
M205 X5 Y5
G1 F1200 X87.254 Y30.16 E37.45118
G1 X87.595 Y29.622 E37.46061
G1 X88.113 Y29.014 E37.47244
G1 X88.216 Y28.911 E37.4746
G1 X88.694 Y28.49 E37.48404
G1 X89.221 Y28.132 E37.49347
G1 X89.788 Y27.843 E37.5029
G1 X90.387 Y27.627 E37.51233
G1 X91.009 Y27.488 E37.52177
G1 X91.805 Y27.425 E37.5336
G1 X141.595 Y27.425 E38.27116
G1 X142.231 Y27.465 E38.2806
G1 X142.856 Y27.584 E38.29002
G1 X143.462 Y27.781 E38.29946
G1 X144.038 Y28.052 E38.30889
G1 X144.576 Y28.393 E38.31833
G1 X145.184 Y28.911 E38.33016
G1 X145.287 Y29.014 E38.33232
G1 X145.708 Y29.492 E38.34175
G1 X146.066 Y30.019 E38.35119
G1 X146.355 Y30.586 E38.36062
G1 X146.571 Y31.185 E38.37005
G1 X146.71 Y31.807 E38.37949
G1 X146.773 Y32.603 E38.39132
G1 X146.773 Y64.524 E38.86417
G1 X167.421 Y80.623 E39.25202
G1 X167.897 Y81.045 E39.26145
G1 X168.317 Y81.524 E39.27088
G1 X168.674 Y82.051 E39.28031
G1 X168.962 Y82.619 E39.28975
G1 X169.176 Y83.219 E39.29918
G1 X169.314 Y83.841 E39.30862
G1 X169.375 Y84.625 E39.32027
G1 X169.375 Y182.397 E40.7686
G1 X169.335 Y183.033 E40.77804
G1 X169.216 Y183.658 E40.78746
G1 X169.019 Y184.264 E40.7969
G1 X168.748 Y184.84 E40.80633
G1 X168.407 Y185.378 E40.81577
G1 X167.889 Y185.986 E40.8276
G1 X167.786 Y186.089 E40.82975
G1 X167.308 Y186.51 E40.83919
G1 X166.781 Y186.868 E40.84863
G1 X166.214 Y187.157 E40.85806
G1 X165.615 Y187.373 E40.86749
G1 X164.993 Y187.512 E40.87693
G1 X164.197 Y187.575 E40.88876
G1 X68.803 Y187.575 E42.30186
G1 X68.167 Y187.535 E42.3113
G1 X67.542 Y187.416 E42.32072
G1 X66.936 Y187.219 E42.33016
G1 X66.36 Y186.948 E42.33959
G1 X65.822 Y186.607 E42.34903
G1 X65.214 Y186.089 E42.36086
G1 X65.111 Y185.986 E42.36302
G1 X64.69 Y185.508 E42.37245
G1 X64.332 Y184.981 E42.38189
G1 X64.043 Y184.414 E42.39132
G1 X63.827 Y183.815 E42.40075
G1 X63.688 Y183.193 E42.41019
G1 X63.625 Y182.397 E42.42202
G1 X63.625 Y84.363 E43.87423
G1 X63.665 Y83.727 E43.88367
G1 X63.784 Y83.102 E43.89309
G1 X63.981 Y82.496 E43.90253
G1 X64.252 Y81.92 E43.91196
G1 X64.593 Y81.382 E43.9214
G1 X64.999 Y80.891 E43.93083
G1 X65.463 Y80.455 E43.94027
